Default.style/beauty_salon.svg

<?xml version="1.0" encoding="UTF-8" standalone="no"?>
<svg width="32px" height="26px" viewBox="0 0 32 26" version="1.1" xmlns="http://www.w3.org/2000/svg" xmlns:xlink="http://www.w3.org/1999/xlink" xmlns:sketch="http://www.bohemiancoding.com/sketch/ns">
    <!-- Generator: Sketch 3.2.2 (9983) - http://www.bohemiancoding.com/sketch -->
    <title>beauty-salon</title>
    <desc>Created with Sketch.</desc>
    <defs></defs>
    <g id="p" stroke="none" stroke-width="1" fill="none" fill-rule="evenodd" sketch:type="MSPage">
        <g id="beauty-salon" sketch:type="MSLayerGroup" fill="#888888">
            <path d="M22.5281232,15.2663487 L21.2274491,16.8975996 L21.5813604,17.5276966 C21.5813604,17.5276966 20.7755624,18.4658409 20.4006563,20.007078 C20.0237508,21.5463148 20.1057303,23.1435605 18.9220269,24.5617787 C17.868291,25.8219726 17.1504709,26 16.3576696,26 C15.9237783,26 13.7873137,25.2288814 14.0172561,22.5844745 C14.2471985,19.9400677 16.068742,19.0009232 18.1762138,17.8627481 C20.2856852,16.724573 20.6325982,15.8314356 20.6325982,15.8314356 L20.6665897,15.8914448 L31,0 L31,2.00030774 C31,1.7452685 26.3191731,10.1785659 24.4236481,14.7012617 C24.204703,15.2223419 22.5281232,15.2663487 22.5281232,15.2663487 L22.5281232,15.2663487 L22.5281232,15.2663487 Z M17.6151729,20.0010415 C16.5633457,19.9615842 15.4364594,21.0481761 15.0971926,22.4291798 C14.7579258,23.80816 15.3353799,24.9605139 16.3852056,24.9989595 C17.4370328,25.0384167 18.5629183,23.9508131 18.9031859,22.5718329 C19.2414519,21.1898175 18.6649985,20.0404987 17.6151729,20.0010415 L17.6151729,20.0010415 L17.6151729,20.0010415 Z M15,1.9418926 L15,0 L23,10.6221525 L21.4023339,13 C19.3612253,8.42878482 15,1.71663306 15,1.9418926 L15,1.9418926 L15,1.9418926 Z M9,24 C9.553,24 10,24.447 10,25 C10,25.553 9.553,26 9,26 L2,26 C0.896,26 0,25.168 0,24.143 L0,1.857 C0,0.832 0.896,0 2,0 L9,0 C9.553,0 10,0.448 10,1 C10,1.552 9.553,2 9,2 L3,2 L3,4 L9,4 C9.553,4 10,4.448 10,5 C10,5.552 9.553,6 9,6 L3,6 L3,8 L9,8 C9.553,8 10,8.448 10,9 C10,9.552 9.553,10 9,10 L3,10 L3,12 L9,12 C9.553,12 10,12.448 10,13 C10,13.552 9.553,14 9,14 L3,14 L3,16 L9,16 C9.553,16 10,16.447 10,17 C10,17.553 9.553,18 9,18 L3,18 L3,20 L9,20 C9.553,20 10,20.447 10,21 C10,21.553 9.553,22 9,22 L3,22 L3,24 L9,24 L9,24 Z M24.7940903,15 L25.2201131,15.7523274 L25.2546829,15.6914923 C25.2546829,15.6914923 25.607499,16.5979353 27.7508309,17.7507604 C29.8951797,18.9035856 31.747718,19.8536271 31.9825898,22.5374689 C32.215428,25.2202968 30.0436268,26 29.6013358,26 C28.7950444,26 28.0629765,25.8164808 26.9933441,24.5419854 C25.7884824,23.1042492 25.87084,21.4850217 25.4895547,19.9246013 C25.1082694,18.3621532 24.2897769,17.4110978 24.2897769,17.4110978 L24.6497102,16.7723292 L24,15.9611946 L24.7940903,15 L24.7940903,15 Z M27.0964541,22.5718329 C27.4367861,23.9508131 28.5628846,25.0384167 29.6149109,24.9989595 C30.6649351,24.9605139 31.2414976,23.80816 30.9031675,22.4291798 C30.5628356,21.0481761 29.4367371,19.9615842 28.3847108,20.0010415 C27.3346865,20.0404987 26.7591251,21.1898175 27.0964541,22.5718329 L27.0964541,22.5718329 L27.0964541,22.5718329 Z" id="Shape" sketch:type="MSShapeGroup"></path>
        </g>
    </g>
</svg>

<svg width="32" height="26" xmlns="http://www.w3.org/2000/svg"><path d="m22.528 15.266-1.3 1.632.353.63s-.805.938-1.18 2.48c-.377 1.538-.295 3.136-1.479 4.554C17.868 25.822 17.15 26 16.358 26c-.434 0-2.57-.771-2.34-3.416.23-2.644 2.05-3.583 4.158-4.721 2.11-1.138 2.457-2.032 2.457-2.032l.034.06L31 0v2c0-.255-4.68 8.179-6.576 12.701-.22.521-1.896.565-1.896.565Zm-4.913 4.735c-1.052-.04-2.179 1.047-2.518 2.428-.34 1.38.238 2.532 1.288 2.57 1.052.04 2.178-1.048 2.518-2.427.338-1.382-.238-2.532-1.288-2.571ZM15 1.941V0l8 10.622L21.402 13C19.362 8.429 15 1.717 15 1.942ZM9 24a1 1 0 1 1 0 2H2c-1.104 0-2-.832-2-1.857V1.857C0 .832.896 0 2 0h7a1 1 0 1 1 0 2H3v2h6a1 1 0 1 1 0 2H3v2h6a1 1 0 1 1 0 2H3v2h6a1 1 0 1 1 0 2H3v2h6a1 1 0 1 1 0 2H3v2h6a1 1 0 1 1 0 2H3v2h6Zm15.794-9 .426.752.035-.06s.352.906 2.496 2.059 3.997 2.103 4.232 4.786C32.215 25.22 30.043 26 29.6 26c-.806 0-1.538-.184-2.608-1.458-1.205-1.438-1.122-3.057-1.503-4.617-.382-1.563-1.2-2.514-1.2-2.514l.36-.639-.65-.81.794-.962Zm2.302 7.572c.34 1.379 1.467 2.466 2.519 2.427 1.05-.038 1.626-1.19 1.288-2.57-.34-1.38-1.466-2.467-2.518-2.428-1.05.04-1.626 1.189-1.289 2.57Z" fill="#888" fill-rule="evenodd"/></svg>
